openframe-frontend-core/src/components/icons-v2/brand-logos/google-drive.svg

<svg width="24" height="24" viewBox="0 0 24 24" fill="none" xmlns="http://www.w3.org/2000/svg">
<path d="M8.58753 2.24944C9.09567 1.96542 9.72952 2.1169 10.0568 2.58343L10.1183 2.68157L16.6588 14.3754H21.9996L22.1154 14.3813C22.6825 14.439 23.1246 14.918 23.1246 15.5004C23.1244 16.0827 22.6824 16.5619 22.1154 16.6196L21.9996 16.6254H8.82044L6.09436 21.3305C5.78267 21.8676 5.09512 22.0506 4.55774 21.7392C4.02022 21.4277 3.83765 20.7401 4.14905 20.2026L10.861 8.61712L8.15393 3.7802L8.10266 3.6762C7.87653 3.15316 8.07945 2.53369 8.58753 2.24944ZM10.1256 14.3754H14.0822L12.1383 10.9008L10.1256 14.3754Z" fill="#888888"/>
<path d="M13.9311 1.875C15.0466 1.875 16.0781 2.46946 16.6367 3.43506L22.7055 13.9277L22.8037 14.1138C23.2344 14.9894 23.2313 16.0169 22.7949 16.8896L22.6938 17.0742L20.6342 20.5825C20.0731 21.5379 19.0484 22.1249 17.9404 22.125H6.06051C5.02132 22.125 4.05412 21.6091 3.47507 20.7568L3.3652 20.5825L1.30563 17.0742C0.735806 16.1037 0.73187 14.902 1.29538 13.9277L7.36423 3.43506L7.47409 3.25928C8.05158 2.3982 9.02252 1.87513 10.0683 1.875H13.9311ZM10.0683 4.125C9.79523 4.12512 9.53968 4.25204 9.37546 4.46484L9.311 4.56152L3.24216 15.0542C3.08443 15.327 3.08551 15.6643 3.24508 15.936L5.30466 19.4429C5.46179 19.7104 5.75022 19.875 6.06051 19.875H17.9404C18.2506 19.8749 18.5377 19.7104 18.6948 19.4429L20.7544 15.936C20.894 15.6983 20.9118 15.4105 20.8086 15.1597L20.7573 15.0542L14.6884 4.56152C14.532 4.29139 14.2433 4.125 13.9311 4.125H10.0683Z" fill="#888888"/>
</svg>

<svg xmlns="http://www.w3.org/2000/svg" width="24" height="24" fill="none" viewBox="0 0 24 24">
  <path fill="#888" d="M8.588 2.25a1.125 1.125 0 0 1 1.469.333l.061.099 6.54 11.693H22l.115.006a1.125 1.125 0 0 1 0 2.239l-.115.005H8.82l-2.726 4.706a1.124 1.124 0 0 1-1.945-1.128l6.712-11.586L8.154 3.78l-.051-.104a1.125 1.125 0 0 1 .485-1.427Zm1.538 12.125h3.956l-1.944-3.474-2.012 3.474Z"/>
  <path fill="#888" d="M13.931 1.875c1.116 0 2.147.594 2.706 1.56l6.069 10.493.098.186c.43.875.427 1.903-.01 2.776l-.1.184-2.06 3.508a3.124 3.124 0 0 1-2.694 1.543H6.06a3.126 3.126 0 0 1-2.585-1.368l-.11-.175-2.06-3.508a3.124 3.124 0 0 1-.01-3.146l6.07-10.493.11-.176a3.125 3.125 0 0 1 2.593-1.384h3.863Zm-3.863 2.25a.876.876 0 0 0-.693.34l-.064.097-6.069 10.492a.876.876 0 0 0 .003.882l2.06 3.507a.878.878 0 0 0 .756.432h11.88c.31 0 .597-.165.754-.432l2.06-3.507a.876.876 0 0 0 .054-.776l-.052-.106-6.069-10.492a.875.875 0 0 0-.757-.437h-3.863Z"/>
</svg>
